X:3234
T:Columcille Uí Néill*
M:2/4
L:1/8
Q:300
C:Stephen P. McNally
R:March
K:D
|:A>F F2-F4|E>DE<G F>D ~D2|A>F F2-F4|d>cf<e f>d ~d2|!
|A>F F2-F4|E>DE<G F>DD>F|D<F~F2 D<G~G2|d>cf<e d4:|!
|:F>Af<e d4-|d>FG<A B>AF<E|F>Af<e G4-|G>FG>A B<Gc<A|!
|d>cf<e d4-|d>FG<A B>AF<E|D<F~F2 D<G~G2|d>cf<e d4:|


